src/icons/outline/media/download.svg

<svg width="24" height="24" viewBox="0 0 24 24" fill="none" xmlns="http://www.w3.org/2000/svg">
<g clip-path="url(#clip0_4506_396)">
<path d="M22.2793 15.7595C22.6804 15.7996 23 16.1333 23 16.531V17.8445C23 19.7168 21.4288 21.2486 19.4834 21.2488H4.5166C2.5819 21.2486 1 19.7271 1 17.8445V16.531C1.00003 16.1069 1.36348 15.7556 1.80176 15.7556L1.88281 15.7595C2.28393 15.7997 2.60349 16.1334 2.60352 16.531V17.8445C2.60352 18.8685 3.45848 19.6968 4.5166 19.697H19.4834C20.5308 19.6968 21.3965 18.8685 21.3965 17.8445V16.531C21.3965 16.1069 21.76 15.7556 22.1982 15.7556L22.2793 15.7595Z" fill="#3C3B44"/>
<path d="M12 3.75171C12.4381 3.75173 12.8015 4.10318 12.8018 4.5271V13.1169L15.5166 10.49C15.8266 10.19 16.3404 10.19 16.6504 10.49C16.9601 10.79 16.9603 11.2868 16.6504 11.5867L12.5557 15.5486C12.4061 15.6726 12.2244 15.7556 12.0107 15.7556C11.7971 15.7556 11.6048 15.6725 11.4658 15.5486L11.4551 15.5378H11.4336L7.34961 11.5867C7.03969 11.2868 7.03988 10.79 7.34961 10.49C7.65962 10.19 8.17339 10.19 8.4834 10.49L11.1982 13.1169V4.5271C11.1985 4.10317 11.5619 3.75171 12 3.75171Z" fill="#3C3B44"/>
</g>
<defs>
<clipPath id="clip0_4506_396">
<rect width="24" height="24" fill="white"/>
</clipPath>
</defs>
</svg>

<svg xmlns="http://www.w3.org/2000/svg" width="24" height="24" fill="none" viewBox="0 0 24 24"><g fill="currentColor" clip-path="url(#a)"><path d="M22.28 15.76c.4.04.72.373.72.771v1.314c0 1.872-1.571 3.404-3.517 3.404H4.517C2.582 21.249 1 19.727 1 17.845V16.53c0-.424.363-.775.802-.775l.08.003c.402.04.721.374.722.772v1.314c0 1.024.854 1.852 1.913 1.852h14.966c1.048 0 1.913-.828 1.913-1.852V16.53c0-.424.364-.775.802-.775z"/><path d="M12 3.752c.438 0 .802.351.802.775v8.59l2.715-2.627c.31-.3.823-.3 1.133 0s.31.797 0 1.097l-4.094 3.962a.84.84 0 0 1-.545.207.82.82 0 0 1-.545-.207l-.01-.011h-.022L7.35 11.587a.763.763 0 0 1 0-1.097c.31-.3.823-.3 1.133 0l2.715 2.627v-8.59c0-.424.364-.775.802-.775"/></g><defs><clipPath id="a"><path fill="currentColor" d="M0 0h24v24H0z"/></clipPath></defs></svg>
